elyra/static/icons/component/Actions/K8S.svg

<?xml version="1.0" encoding="UTF-8"?>
<svg x="0" y="0" viewBox="0 0 16 16" version="1.1" xmlns="http://www.w3.org/2000/svg" xmlns:xlink="http://www.w3.org/1999/xlink">
    <title>1-icon/01公共/K8s</title>
    <defs>
        <path d="M8.48388374,1.2089474 L13.2843945,3.52075154 C13.5585815,3.65279305 13.7577201,3.9025049 13.8254387,4.19919947 L15.0110669,9.39377623 C15.0787855,9.69047081 15.0077138,10.0018564 14.8179705,10.239787 L11.495914,14.4055141 C11.3061707,14.6434447 11.0184071,14.7820243 10.7140825,14.7820243 L5.38591751,14.7820243 C5.08159288,14.7820243 4.79382933,14.6434447 4.60408603,14.4055141 L1.2820295,10.239787 C1.0922862,10.0018564 1.02121447,9.69047081 1.08893307,9.39377623 L2.27456132,4.19919947 C2.34227992,3.9025049 2.54141847,3.65279305 2.81560549,3.52075154 L7.61611626,1.2089474 C7.89030328,1.07690589 8.20969672,1.07690589 8.48388374,1.2089474 Z M8.01234377,3 L7.98765623,3 C7.71638185,3 7.49459214,3.21631426 7.4878124,3.4875039 L7.4878124,3.4875039 L7.47270322,4.03444608 C6.59125169,4.15052223 5.80024107,4.55360444 5.19660799,5.14675606 L4.8035342,4.85520237 C4.58565982,4.69358387 4.27865448,4.73518018 4.1116413,4.94894731 L4.1116413,4.94894731 L4.09644213,4.96840136 C3.92942894,5.18216848 3.96333953,5.49011752 4.17286586,5.66242104 L4.17286586,5.66242104 L4.55088995,5.97299789 C4.20080905,6.56740567 4,7.2602521 4,8 C4,8.11315848 4.00469883,8.22521949 4.01391203,8.33599856 L3.52893444,8.45159446 C3.26508053,8.51460954 3.09960592,8.77652688 3.15600704,9.04187326 L3.15600704,9.04187326 L3.16113987,9.06602132 C3.21754098,9.3313677 3.47524093,9.50333651 3.74191402,9.4535846 L3.74191402,9.4535846 L4.23732084,9.36049996 C4.53393658,10.1806818 5.09109236,10.8761673 5.80883534,11.3470035 L5.59225832,11.8219173 C5.47947019,12.068633 5.58398753,12.3602812 5.82780732,12.4792 L5.82780732,12.4792 L5.84999634,12.4900223 C6.09381614,12.6089412 6.38798534,12.5117454 6.51296064,12.2709738 L6.51296064,12.2709738 L6.75627312,11.8028668 C7.14774146,11.9308148 7.5657912,12 8,12 C8.42163376,12 8.82803087,11.9347641 9.20964852,11.8138351 L9.45074324,12.2966115 C9.57149747,12.5395275 9.86392557,12.6418424 10.1097836,12.5271969 L10.1097836,12.5271969 L10.1321582,12.5167635 C10.3780162,12.402118 10.4876076,12.1123383 10.3791425,11.8636918 L10.3791425,11.8636918 L10.1622502,11.3657937 C10.8841736,10.9010563 11.4468928,10.2103951 11.7504974,9.39372064 L12.2789428,9.50205688 C12.5447069,9.5564553 12.8053689,9.38901017 12.8663924,9.12468854 L12.8663924,9.12468854 L12.8719459,9.10063373 C12.9329693,8.8363121 12.772091,8.57154673 12.509377,8.50393636 L12.509377,8.50393636 L11.9832161,8.36889493 C11.9943237,8.247419 12,8.12437238 12,8 C12,7.25983107 11.7989623,6.56661701 11.4485122,5.97198306 L11.8712296,5.62543933 C12.0807559,5.45313581 12.1146665,5.14518677 11.9476534,4.93141965 L11.9476534,4.93141965 L11.9324542,4.9119656 C11.765441,4.69819847 11.4584357,4.65660216 11.2405613,4.81822066 L11.2405613,4.81822066 L10.8003732,5.14379278 C10.1969706,4.55211276 9.40688103,4.15012599 8.52663058,4.0343584 L8.5121876,3.4875039 C8.50540786,3.21631426 8.28361815,3 8.01234377,3 L8.01234377,3 Z M7.77401039,10.0483343 C8.02125612,9.92535394 8.32138364,10.026091 8.44436396,10.2733367 L8.44436396,10.2733367 L8.75768145,10.9034989 C8.51565564,10.9664801 8.26174231,11 8,11 C7.73191579,11 7.47204454,10.9648361 7.22474701,10.8988691 L7.55282282,10.2658264 C7.60162975,10.1717129 7.67908799,10.0955488 7.77401039,10.0483343 Z M9.91529075,9.02618962 L10.004955,9.03633053 L10.7547416,9.18995299 C10.5387562,9.68928205 10.1909825,10.1183068 9.75527341,10.4331741 L9.44636676,9.72613978 C9.40514922,9.63168553 9.3941248,9.52680241 9.41480203,9.4258423 C9.47020758,9.15531534 9.73442808,8.98092498 10.004955,9.03633053 Z M6.00111834,9.03178343 C6.10237603,9.01287828 6.20700153,9.02570835 6.30069103,9.06851961 C6.55185395,9.18328807 6.6624235,9.47993406 6.54765504,9.73109698 L6.54765504,9.73109698 L6.23065776,10.4229452 C5.79715241,10.1058408 5.45193259,9.67521004 5.23875989,9.1748146 Z M8.48798604,7 L9.07698604,7.754 L8.85898604,8.696 L8.00898604,9.093 L7.16798604,8.682 L6.97598604,7.778 L7.58398604,7 L8.48798604,7 Z M11,8 L10.996852,8.11491626 L10.3102673,7.9382267 C10.2332646,7.91841815 10.1624786,7.88063788 10.1034912,7.82844163 L10.0486435,7.77157176 C9.87324916,7.55828458 9.90396735,7.24319592 10.1172545,7.06780154 L10.1172545,7.06780154 L10.66348,6.61811912 C10.8784895,7.03169149 11,7.5016556 11,8 Z M5.33547863,6.62012395 L5.87856512,7.06538281 C5.96267769,7.13456659 6.02190107,7.22932195 6.04723249,7.33524475 C6.11146071,7.60381382 5.94580973,7.87359934 5.67724066,7.93782756 L5.67724066,7.93782756 L5.00158542,8.09846614 C5.00053117,8.06577355 5,8.03294881 5,8 C5,7.50246068 5.12111818,7.03321002 5.33547863,6.62012395 Z M7.448185,5.05064168 L7.42917083,5.82215151 C7.42658459,5.92511525 7.39226411,6.0247681 7.33090053,6.10748891 C7.16637909,6.32927103 6.85321818,6.37568998 6.63143606,6.21116854 L6.63143606,6.21116854 L6.0128846,5.75242762 C6.41118944,5.40001466 6.90386466,5.15184426 7.448185,5.05064168 Z M9.98331697,5.74907251 L9.36765974,6.20651278 C9.28492893,6.26783717 9.18528062,6.30212055 9.08233148,6.30467821 C8.80627428,6.31153655 8.57692593,6.09330776 8.57006759,5.81725056 L8.57006759,5.81725056 L8.55162887,5.05060709 C9.09429399,5.15146633 9.58563466,5.39839945 9.98331697,5.74907251 Z" id="path-1"></path>
    </defs>
    <g id="1-icon/01公共/K8s" stroke="none" stroke-width="1" fill="none" fill-rule="evenodd">
        <mask id="mask-2" fill="white">
            <use xlink:href="#path-1"></use>
        </mask>
        <use id="形状结合" fill="#D8D8D8" xlink:href="#path-1"></use>
        <g id="编组" mask="url(#mask-2)" fill="#8D98AA">
            <g id="矩形">
                <rect x="0" y="0" width="16" height="16"></rect>
            </g>
        </g>
    </g>
</svg>

<?xml version="1.0" encoding="utf-8"?>
<!-- Generator: Adobe Illustrator 24.0.1, SVG Export Plug-In . SVG Version: 6.00 Build 0)  -->
<svg version="1.1" id="图层_1" xmlns="http://www.w3.org/2000/svg" xmlns:xlink="http://www.w3.org/1999/xlink" x="0px" y="0px"
	 viewBox="0 0 16 16" style="enable-background:new 0 0 16 16;" xml:space="preserve">
<style type="text/css">
	.st0{fill:none;}
	.st1{fill-rule:evenodd;clip-rule:evenodd;fill:#D8D8D8;}
	.st2{filter:url(#Adobe_OpacityMaskFilter);}
	.st3{fill-rule:evenodd;clip-rule:evenodd;fill:#FFFFFF;}
	.st4{mask:url(#mask-2_1_);fill-rule:evenodd;clip-rule:evenodd;fill:#707070;}
</style>
<title>K8S</title>
<g id="工作流_x2F_工作流实例">
	<g id="画板" transform="translate(-106.000000, -229.000000)">
		<g id="K8S" transform="translate(106.000000, 229.000000)">
			<rect id="矩形" class="st0" width="16" height="16"/>
			<g id="形状结合">
				<path id="path-1_1_" class="st1" d="M8.5,1.2l4.8,2.3c0.3,0.1,0.5,0.4,0.5,0.7L15,9.4c0.1,0.3,0,0.6-0.2,0.8l-3.3,4.2
					c-0.2,0.2-0.5,0.4-0.8,0.4H5.4c-0.3,0-0.6-0.1-0.8-0.4l-3.3-4.2C1.1,10,1,9.7,1.1,9.4l1.2-5.2c0.1-0.3,0.3-0.5,0.5-0.7l4.8-2.3
					C7.9,1.1,8.2,1.1,8.5,1.2z M8,3L8,3C7.7,3,7.5,3.2,7.5,3.5l0,0l0,0.5C6.6,4.2,5.8,4.6,5.2,5.1L4.8,4.9C4.6,4.7,4.3,4.7,4.1,4.9
					l0,0l0,0C3.9,5.2,4,5.5,4.2,5.7l0,0L4.6,6C4.2,6.6,4,7.3,4,8c0,0.1,0,0.2,0,0.3L3.5,8.5C3.3,8.5,3.1,8.8,3.2,9l0,0l0,0
					c0.1,0.3,0.3,0.4,0.6,0.4l0,0l0.5-0.1c0.3,0.8,0.9,1.5,1.6,2l-0.2,0.5c-0.1,0.2,0,0.5,0.2,0.7l0,0l0,0c0.2,0.1,0.5,0,0.7-0.2
					l0,0l0.2-0.5C7.1,11.9,7.6,12,8,12c0.4,0,0.8-0.1,1.2-0.2l0.2,0.5c0.1,0.2,0.4,0.3,0.7,0.2l0,0l0,0c0.2-0.1,0.4-0.4,0.2-0.7l0,0
					l-0.2-0.5c0.7-0.5,1.3-1.2,1.6-2l0.5,0.1c0.3,0.1,0.5-0.1,0.6-0.4l0,0l0,0c0.1-0.3-0.1-0.5-0.4-0.6l0,0L12,8.4
					c0-0.1,0-0.2,0-0.4c0-0.7-0.2-1.4-0.6-2l0.4-0.3c0.2-0.2,0.2-0.5,0.1-0.7l0,0l0,0c-0.2-0.2-0.5-0.3-0.7-0.1l0,0l-0.4,0.3
					c-0.6-0.6-1.4-1-2.3-1.1l0-0.5C8.5,3.2,8.3,3,8,3L8,3z M7.8,10c0.2-0.1,0.5,0,0.7,0.2l0,0l0.3,0.6C8.5,11,8.3,11,8,11
					c-0.3,0-0.5,0-0.8-0.1l0.3-0.6C7.6,10.2,7.7,10.1,7.8,10z M9.9,9L9.9,9l0.8,0.2c-0.2,0.5-0.6,0.9-1,1.2L9.4,9.7
					c0-0.1-0.1-0.2,0-0.3C9.5,9.2,9.7,9,9.9,9L9.9,9z M6,9c0.1,0,0.2,0,0.3,0c0.3,0.1,0.4,0.4,0.2,0.7l0,0l-0.3,0.7
					c-0.4-0.3-0.8-0.7-1-1.2L6,9z M8.5,7l0.6,0.8L8.9,8.7L8,9.1L7.2,8.7L7,7.8L7.6,7H8.5z M11,8l0,0.1l-0.7-0.2
					c-0.1,0-0.1-0.1-0.2-0.1L10,7.8c-0.2-0.2-0.1-0.5,0.1-0.7l0,0l0.5-0.4C10.9,7,11,7.5,11,8z M5.3,6.6l0.5,0.4C6,7.1,6,7.2,6,7.3
					c0.1,0.3-0.1,0.5-0.4,0.6l0,0L5,8.1C5,8.1,5,8,5,8C5,7.5,5.1,7,5.3,6.6z M7.4,5.1l0,0.8c0,0.1,0,0.2-0.1,0.3
					C7.2,6.3,6.9,6.4,6.6,6.2l0,0L6,5.8C6.4,5.4,6.9,5.2,7.4,5.1z M10,5.7L9.4,6.2C9.3,6.3,9.2,6.3,9.1,6.3c-0.3,0-0.5-0.2-0.5-0.5
					l0,0l0-0.8C9.1,5.2,9.6,5.4,10,5.7z"/>
			</g>
			<defs>
				<filter id="Adobe_OpacityMaskFilter" filterUnits="userSpaceOnUse" x="0" y="0" width="16" height="16">
					<feColorMatrix  type="matrix" values="1 0 0 0 0  0 1 0 0 0  0 0 1 0 0  0 0 0 1 0"/>
				</filter>
			</defs>
			<mask maskUnits="userSpaceOnUse" x="0" y="0" width="16" height="16" id="mask-2_1_">
				<g class="st2">
					<path id="path-1_2_" class="st3" d="M8.5,1.2l4.8,2.3c0.3,0.1,0.5,0.4,0.5,0.7L15,9.4c0.1,0.3,0,0.6-0.2,0.8l-3.3,4.2
						c-0.2,0.2-0.5,0.4-0.8,0.4H5.4c-0.3,0-0.6-0.1-0.8-0.4l-3.3-4.2C1.1,10,1,9.7,1.1,9.4l1.2-5.2c0.1-0.3,0.3-0.5,0.5-0.7l4.8-2.3
						C7.9,1.1,8.2,1.1,8.5,1.2z M8,3L8,3C7.7,3,7.5,3.2,7.5,3.5l0,0l0,0.5C6.6,4.2,5.8,4.6,5.2,5.1L4.8,4.9C4.6,4.7,4.3,4.7,4.1,4.9
						l0,0l0,0C3.9,5.2,4,5.5,4.2,5.7l0,0L4.6,6C4.2,6.6,4,7.3,4,8c0,0.1,0,0.2,0,0.3L3.5,8.5C3.3,8.5,3.1,8.8,3.2,9l0,0l0,0
						c0.1,0.3,0.3,0.4,0.6,0.4l0,0l0.5-0.1c0.3,0.8,0.9,1.5,1.6,2l-0.2,0.5c-0.1,0.2,0,0.5,0.2,0.7l0,0l0,0c0.2,0.1,0.5,0,0.7-0.2
						l0,0l0.2-0.5C7.1,11.9,7.6,12,8,12c0.4,0,0.8-0.1,1.2-0.2l0.2,0.5c0.1,0.2,0.4,0.3,0.7,0.2l0,0l0,0c0.2-0.1,0.4-0.4,0.2-0.7
						l0,0l-0.2-0.5c0.7-0.5,1.3-1.2,1.6-2l0.5,0.1c0.3,0.1,0.5-0.1,0.6-0.4l0,0l0,0c0.1-0.3-0.1-0.5-0.4-0.6l0,0L12,8.4
						c0-0.1,0-0.2,0-0.4c0-0.7-0.2-1.4-0.6-2l0.4-0.3c0.2-0.2,0.2-0.5,0.1-0.7l0,0l0,0c-0.2-0.2-0.5-0.3-0.7-0.1l0,0l-0.4,0.3
						c-0.6-0.6-1.4-1-2.3-1.1l0-0.5C8.5,3.2,8.3,3,8,3L8,3z M7.8,10c0.2-0.1,0.5,0,0.7,0.2l0,0l0.3,0.6C8.5,11,8.3,11,8,11
						c-0.3,0-0.5,0-0.8-0.1l0.3-0.6C7.6,10.2,7.7,10.1,7.8,10z M9.9,9L9.9,9l0.8,0.2c-0.2,0.5-0.6,0.9-1,1.2L9.4,9.7
						c0-0.1-0.1-0.2,0-0.3C9.5,9.2,9.7,9,9.9,9L9.9,9z M6,9c0.1,0,0.2,0,0.3,0c0.3,0.1,0.4,0.4,0.2,0.7l0,0l-0.3,0.7
						c-0.4-0.3-0.8-0.7-1-1.2L6,9z M8.5,7l0.6,0.8L8.9,8.7L8,9.1L7.2,8.7L7,7.8L7.6,7H8.5z M11,8l0,0.1l-0.7-0.2
						c-0.1,0-0.1-0.1-0.2-0.1L10,7.8c-0.2-0.2-0.1-0.5,0.1-0.7l0,0l0.5-0.4C10.9,7,11,7.5,11,8z M5.3,6.6l0.5,0.4C6,7.1,6,7.2,6,7.3
						c0.1,0.3-0.1,0.5-0.4,0.6l0,0L5,8.1C5,8.1,5,8,5,8C5,7.5,5.1,7,5.3,6.6z M7.4,5.1l0,0.8c0,0.1,0,0.2-0.1,0.3
						C7.2,6.3,6.9,6.4,6.6,6.2l0,0L6,5.8C6.4,5.4,6.9,5.2,7.4,5.1z M10,5.7L9.4,6.2C9.3,6.3,9.2,6.3,9.1,6.3c-0.3,0-0.5-0.2-0.5-0.5
						l0,0l0-0.8C9.1,5.2,9.6,5.4,10,5.7z"/>
				</g>
			</mask>
			<rect id="矩形_1_" class="st4" width="16" height="16"/>
		</g>
	</g>
</g>
</svg>
